packages/core/src/svgs/tokens/mono/MEAN.svg

<svg width="24" height="24" viewBox="0 0 24 24" fill="none" xmlns="http://www.w3.org/2000/svg">
<path fill-rule="evenodd" clip-rule="evenodd" d="M21.375 2L11.9999 4.5L2.625 2C2.625 4.11249 2 6.37499 2 6.37499L5.98748 17.2999L11.9999 21.9999L18.0125 17.2999L22 6.37499C21.9374 6.37499 21.375 4.11249 21.375 2ZM11.9999 6.37499L4.49998 4.5C4.49998 6.34373 4.0875 6.85623 4.0875 6.85623L7.62498 16.0625L9.49994 17.625L6.37499 6.99998L10.125 8.24994L11.3749 17.9375L11.9999 19.4999L12.625 17.9375L13.8749 8.24994L17.625 6.99998L14.5 17.625L16.3749 16.0625L19.9124 6.85623C19.9124 6.85623 19.5 6.06874 19.5 4.5L11.9999 6.37499Z" fill="white"/>
</svg>

<svg xmlns="http://www.w3.org/2000/svg" width="24" height="24" fill="none" viewBox="0 0 24 24">
    <path fill="#fff" fill-rule="evenodd" d="M21.375 2 12 4.5 2.625 2C2.625 4.112 2 6.375 2 6.375L5.987 17.3 12 22l6.012-4.7L22 6.375c-.063 0-.625-2.263-.625-4.375M12 6.375 4.5 4.5c0 1.844-.412 2.356-.412 2.356l3.537 9.207L9.5 17.625 6.375 7l3.75 1.25 1.25 9.688L12 19.5l.625-1.562 1.25-9.688L17.625 7 14.5 17.625l1.875-1.562 3.537-9.207S19.5 6.07 19.5 4.5z" clip-rule="evenodd"/>
</svg>
